!! 00000] TT[WS
!!!OTL: Da shimenwu
!!!ARE: Asia, China, Shanxi Linxian
!! Ethnic Group: Han
!! WI, 298 (2)
!!!SCT: J0360
!!!YEM: Copyright 1995, estate of Helmut Schaffrath.
**kern
*ICvox
*Ivox
*M2/4
*k[f#]
*G:
{8dd
16dd
16ee
8gg
16gg
16ee
=1
8dd
16ee
16dd
4cc
=2
8.dd
16ee
8dd
8cc
=3
8b
16a
16b
4g}
=4
{8g
16g
16a
8dd
8dd
=5
8dd
16ee
16dd
4cc
=6
8g
16f#
16e
8d
8b
=7
8.a
16g
16a
16g
16f#
16e
=8
2d}
==
!!!AGN: Xiaodiao. Xinminge, Xuanchuan
!! Neue Text. Politische Liede
!!!ONB: ESAC (Essen Associative Code) Database: CHINA
!!!AMT: simple duple
!!!AIN: vox
!!!EED: Helmut Schaffrath
!!!EEV: 1.0
*-
